app/client/src/widgets/wds/WDSModalWidget/icon.svg

<svg width="15" height="15" viewBox="0 0 15 15" fill="none" xmlns="http://www.w3.org/2000/svg">
<path d="M11.5 0.5H1.5C0.947715 0.5 0.5 0.947715 0.5 1.5V11.5C0.5 12.0523 0.947715 12.5 1.5 12.5H11.5C12.0523 12.5 12.5 12.0523 12.5 11.5V1.5C12.5 0.947715 12.0523 0.5 11.5 0.5Z" stroke="#364252" stroke-linecap="round" stroke-linejoin="round"/>
<path d="M7.5 5.5L9.5 3.5M9.5 5.5L7.5 3.5" stroke="#364252" stroke-linecap="round" stroke-linejoin="round"/>
<path d="M14.5 11.5V12.5C14.5 13.6046 13.6046 14.5 12.5 14.5H11.5" stroke="#364252" stroke-linecap="round" stroke-linejoin="round"/>
<path d="M14.5 6.5V8.5" stroke="#364252" stroke-linecap="round" stroke-linejoin="round"/>
<path d="M14.5 2.5V3.5" stroke="#364252" stroke-linecap="round" stroke-linejoin="round"/>
<path d="M6.5 14.5H8.5" stroke="#364252" stroke-linecap="round" stroke-linejoin="round"/>
<path d="M2.5 14.5H3.5" stroke="#364252" stroke-linecap="round" stroke-linejoin="round"/>
</svg>

<svg xmlns="http://www.w3.org/2000/svg" width="15" height="15" fill="none"><path stroke="#364252" stroke-linecap="round" stroke-linejoin="round" d="M11.5.5h-10a1 1 0 0 0-1 1v10a1 1 0 0 0 1 1h10a1 1 0 0 0 1-1v-10a1 1 0 0 0-1-1ZM7.5 5.5l2-2m0 2-2-2M14.5 11.5v1a2 2 0 0 1-2 2h-1M14.5 6.5v2M14.5 2.5v1M6.5 14.5h2M2.5 14.5h1"/></svg>
